src/assets/Imgs/profileCom/message.svg

<svg width="25" height="25" viewBox="0 0 25 25" fill="none" xmlns="http://www.w3.org/2000/svg">
<g id="Dis">
<g id="Message">
<path id="Message_2" fill-rule="evenodd" clip-rule="evenodd" d="M16.0589 6.94727C16.9976 6.94727 17.9006 7.31827 18.5649 7.98397C19.2299 8.64827 19.6016 9.54427 19.6016 10.4823V16.0123C19.6016 17.9653 18.0126 19.5473 16.0589 19.5473H9.14356C7.18986 19.5473 5.60156 17.9653 5.60156 16.0123V10.4823C5.60156 8.52927 7.18286 6.94727 9.14356 6.94727H16.0589ZM17.1714 11.5254L17.2274 11.4694C17.3947 11.2664 17.3947 10.9724 17.2197 10.7694C17.1224 10.6651 16.9887 10.6014 16.8494 10.5874C16.7024 10.5797 16.5624 10.6294 16.4567 10.7274L13.3004 13.2474C12.8944 13.5841 12.3127 13.5841 11.9004 13.2474L8.75041 10.7274C8.53271 10.5664 8.23171 10.5874 8.05041 10.7764C7.86141 10.9654 7.84041 11.2664 8.00071 11.4764L8.09241 11.5674L11.2774 14.0524C11.6694 14.3604 12.1447 14.5284 12.6424 14.5284C13.1387 14.5284 13.6224 14.3604 14.0137 14.0524L17.1714 11.5254Z" fill="#F9B617"/>
</g>
</g>
</svg>

<svg fill="none" height="25" viewBox="0 0 25 25" width="25" xmlns="http://www.w3.org/2000/svg"><path clip-rule="evenodd" d="m16.0589 6.94727c.9387 0 1.8417.371 2.506 1.0367.665.6643 1.0367 1.5603 1.0367 2.49833v5.53c0 1.953-1.589 3.535-3.5427 3.535h-6.91534c-1.9537 0-3.542-1.582-3.542-3.535v-5.53c0-1.95303 1.5813-3.53503 3.542-3.53503zm1.1125 4.57813.056-.056c.1673-.203.1673-.497-.0077-.7-.0973-.1043-.231-.168-.3703-.182-.147-.0077-.287.042-.3927.14l-3.1563 2.52c-.406.3367-.9877.3367-1.4 0l-3.14999-2.52c-.2177-.161-.5187-.14-.7.049-.189.189-.21.49-.0497.7l.0917.091 3.18499 2.485c.392.308.8673.476 1.365.476.4963 0 .98-.168 1.3713-.476z" fill="#f9b617" fill-rule="evenodd"/></svg>
